svgs/duotone/calculator-simple.svg

<svg xmlns="http://www.w3.org/2000/svg" viewBox="0 0 512 512"><!-- Font Awesome Pro 6.0.0-alpha2 by @fontawesome - https://fontawesome.com License - https://fontawesome.com/license (Commercial License) --><defs><style>.fa-secondary{opacity:.4}</style></defs><path d="M192 288H32C14.375 288 0 302.375 0 320V480C0 497.625 14.375 512 32 512H192C209.625 512 224 497.625 224 480V320C224 302.375 209.625 288 192 288ZM157.25 422.625C163.473 428.846 163.473 439.027 157.25 445.25C151.029 451.471 140.848 451.471 134.625 445.25L112 422.625L89.375 445.25C83.154 451.471 72.973 451.471 66.75 445.25C60.529 439.027 60.529 428.846 66.75 422.625L89.375 400L66.75 377.375C60.529 371.152 60.529 360.971 66.75 354.75C72.973 348.527 83.154 348.527 89.375 354.75L112 377.375L134.625 354.75C140.848 348.527 151.029 348.527 157.25 354.75C163.473 360.971 163.473 371.152 157.25 377.375L134.625 400L157.25 422.625ZM192 0H32C14.375 0 0 14.375 0 32V192C0 209.625 14.375 224 32 224H192C209.625 224 224 209.625 224 192V32C224 14.375 209.625 0 192 0ZM176 112.045C176 120.82 168.82 128 160.045 128H63.955C55.18 128 48 120.82 48 112.045V111.955C48 103.18 55.18 96 63.955 96H160.045C168.82 96 176 103.18 176 111.955V112.045ZM480 0H320C302.375 0 288 14.375 288 32V192C288 209.625 302.375 224 320 224H480C497.625 224 512 209.625 512 192V32C512 14.375 497.625 0 480 0ZM464 112.045C464 120.82 456.82 128 448.045 128H416V160.045C416 168.82 408.82 176 400.045 176H399.955C391.18 176 384 168.82 384 160.045V128H351.955C343.18 128 336 120.82 336 112.045V111.955C336 103.18 343.18 96 351.955 96H384V63.955C384 55.18 391.18 48 399.955 48H400.045C408.82 48 416 55.18 416 63.955V96H448.045C456.82 96 464 103.18 464 111.955V112.045Z" class="fa-secondary"/><path d="M351.955 128H384V160.045C384 168.82 391.18 176 399.955 176H400.045C408.82 176 416 168.82 416 160.045V128H448.045C456.82 128 464 120.82 464 112.045V111.955C464 103.18 456.82 96 448.045 96H416V63.955C416 55.18 408.82 48 400.045 48H399.955C391.18 48 384 55.18 384 63.955V96H351.955C343.18 96 336 103.18 336 111.955V112.045C336 120.82 343.18 128 351.955 128ZM157.25 354.75C151.029 348.527 140.848 348.527 134.625 354.75L112 377.375L89.375 354.75C83.154 348.527 72.973 348.527 66.75 354.75C60.529 360.971 60.529 371.152 66.75 377.375L89.375 400L66.75 422.625C60.529 428.846 60.529 439.027 66.75 445.25C72.973 451.471 83.154 451.471 89.375 445.25L112 422.625L134.625 445.25C140.848 451.471 151.029 451.471 157.25 445.25C163.473 439.027 163.473 428.846 157.25 422.625L134.625 400L157.25 377.375C163.473 371.152 163.473 360.971 157.25 354.75ZM160.045 96H63.955C55.18 96 48 103.18 48 111.955V112.045C48 120.82 55.18 128 63.955 128H160.045C168.82 128 176 120.82 176 112.045V111.955C176 103.18 168.82 96 160.045 96ZM480 288H320C302.375 288 288 302.375 288 320V480C288 497.625 302.375 512 320 512H480C497.625 512 512 497.625 512 480V320C512 302.375 497.625 288 480 288ZM464 432.045C464 440.82 456.82 448 448.045 448H351.955C343.18 448 336 440.82 336 432.045V431.955C336 423.18 343.18 416 351.955 416H448.045C456.82 416 464 423.18 464 431.955V432.045ZM464 368.045C464 376.82 456.82 384 448.045 384H351.955C343.18 384 336 376.82 336 368.045V367.955C336 359.18 343.18 352 351.955 352H448.045C456.82 352 464 359.18 464 367.955V368.045Z" class="fa-primary"/></svg>

<svg xmlns="http://www.w3.org/2000/svg" viewBox="0 0 512 512"><!--! Font Awesome Pro 6.3.0 by @fontawesome - https://fontawesome.com License - https://fontawesome.com/license (Commercial License) Copyright 2023 Fonticons, Inc. --><defs><style>.fa-secondary{opacity:.4}</style></defs><path class="fa-primary" d="M351.1 128H384v32.04C384 168.8 391.2 176 400 176S416 168.8 416 160V128h32.04C456.8 128 464 120.8 464 111.1S456.8 96 448 96H416V63.96C416 55.18 408.8 48 399.1 48S384 55.18 384 63.96V96h-32.04C343.2 96 336 103.2 336 112S343.2 128 351.1 128zM157.3 354.8c-6.221-6.223-16.4-6.223-22.62 0L112 377.4l-22.62-22.62c-6.221-6.223-16.4-6.223-22.62 0c-6.221 6.221-6.221 16.4 0 22.62L89.37 400l-22.62 22.62c-6.221 6.221-6.221 16.4 0 22.62c6.223 6.221 16.4 6.221 22.62 0L112 422.6l22.62 22.62c6.223 6.221 16.4 6.221 22.62 0c6.223-6.223 6.223-16.4 0-22.62L134.6 400l22.62-22.62C163.5 371.2 163.5 360.1 157.3 354.8zM160 96H63.96C55.18 96 48 103.2 48 112S55.18 128 63.96 128h96.09C168.8 128 176 120.8 176 111.1S168.8 96 160 96zM480 288h-160c-17.62 0-32 14.38-32 32v160c0 17.62 14.38 32 32 32h160c17.62 0 32-14.38 32-32v-160C512 302.4 497.6 288 480 288zM464 431.1C464 440.7 456.8 448 448 448h-96.09C343.2 448 336 440.8 336 432S343.2 416 351.1 416h96.06C456.8 416 464 423.2 464 431.1zM464 367.1C464 376.7 456.8 384 448 384h-96.06C343.2 384 336 376.8 336 368S343.2 352 351.1 352h96.09C456.8 352 464 359.2 464 367.1z"/><path class="fa-secondary" d="M192 288H32c-17.62 0-32 14.38-32 32v160c0 17.62 14.38 32 32 32h160c17.62 0 32-14.38 32-32v-160C224 302.4 209.6 288 192 288zM157.3 422.6c6.223 6.221 6.223 16.4 0 22.62c-6.221 6.221-16.4 6.221-22.62 0L112 422.6l-22.62 22.62c-6.221 6.221-16.4 6.221-22.62 0c-6.221-6.223-6.221-16.4 0-22.62L89.37 400l-22.62-22.62c-6.221-6.223-6.221-16.4 0-22.62c6.223-6.223 16.4-6.223 22.62 0L112 377.4l22.62-22.62c6.223-6.223 16.4-6.223 22.62 0c6.223 6.221 6.223 16.4 0 22.62L134.6 400L157.3 422.6zM192 0H32C14.38 0 0 14.38 0 32v160c0 17.62 14.38 32 32 32h160c17.62 0 32-14.38 32-32V32C224 14.38 209.6 0 192 0zM176 111.1C176 120.8 168.8 128 160 128H63.96C55.18 128 48 120.8 48 112S55.18 96 63.96 96h96.09C168.8 96 176 103.2 176 111.1zM480 0h-160c-17.62 0-32 14.38-32 32v160c0 17.62 14.38 32 32 32h160c17.62 0 32-14.38 32-32V32C512 14.38 497.6 0 480 0zM464 111.1C464 120.8 456.8 128 448 128H416v32.04C416 168.8 408.8 176 400 176S384 168.8 384 160V128h-32.04C343.2 128 336 120.8 336 112S343.2 96 351.1 96H384V63.96C384 55.18 391.2 48 399.1 48S416 55.18 416 63.96V96h32.04C456.8 96 464 103.2 464 111.1z"/></svg>
